X:486
T: Sanshili pu
N: C0023
O: China,Shanxi, Suide
S: I, 74]
N: Als Tonbeispiel vorhanden; Signatur: 00151 (LIAO1), Cut Nr.: 15
N: und Signatur 00156 (SCHULB7) , Asien2 (Schaffrath) ; im Buch
N: mit deutscher Uebersetzung.
N: Noch einmal auf zwei anderen Baendern.
N: Band 3 kommerziell aber gute Version: Korrekturen a. d. Noten.
N: Dies ist die Chorversion. Das eigentliche Volkslied wird in den ersten
N: vier Phrasen von einem Solo-Sopran vorgestellt, vom gemischten Chor
N: (SATB) begleitet. Nach der Wiederholung singen im 3/8-Teil Sopran und
N: Tenor die Melodie. Dann D.C., aber Fine nicht angegeben.
N: Pinyin-Text der ersten Strophe vorhanden!
N: Der Shanxi-Ton soll von der Solistin hier richtig getroffen sein.
R: Shange, Shanqu]
M: 2/4
L: 1/16
K: C
c2d4d2 | g2c4A2 | G3AG2D2 | G8 |
c2d4d2 | g2c4A2 | G3AG2D2 | G8 |
c2F4G2 | c2c4A2 | G3AG2D2 | G8 |
F3FE2D2 | C2D2G2D2 | C8

@@@ Tune index: 6487
